X:201 
T:Stone Church Polka*, The 
F:file ID: cre.4/201stone_c
S:BPC < Barrett < Collins
L:1/8
B:CRE4.086: gan ainm
N:No repeats in source.
M:2/4
Q:120
R:polka
K:D
a/g/|fA gA|aA f2|ed/e/ fe|df a/b/a/g/|
fA gA|aA f2|ed/e/ fe|d2 d :|
K:G
A|de/f/ ge/g/|e/d/B BG|A2 AG/A/|dc/B/ G2|
de/f/ ge/g/|e/d/B BG|eg fa|g2 g :|

%%%

